svg/color/cyop.svg

<?xml version="1.0" encoding="UTF-8" ?>
<!DOCTYPE svg PUBLIC "-//W3C//DTD SVG 1.1//EN" "http://www.w3.org/Graphics/SVG/1.1/DTD/svg11.dtd">
<svg width="250pt" height="250pt" viewBox="0 0 250 250" version="1.1" xmlns="http://www.w3.org/2000/svg">
<g id="#000000ff">
<path fill="#000000" opacity="1.00" d=" M 0.00 0.00 L 250.00 0.00 L 250.00 250.00 L 0.00 250.00 L 0.00 0.00 M 122.61 29.43 C 115.40 36.58 108.23 43.77 101.10 51.01 C 123.38 73.68 146.05 95.98 168.14 118.84 C 169.41 120.48 172.11 121.68 173.62 119.63 C 180.74 112.42 187.96 105.29 195.01 98.01 C 172.94 75.07 150.38 52.59 127.93 30.01 C 126.68 28.36 124.02 27.46 122.61 29.43 M 94.53 57.54 C 72.08 79.98 49.79 102.59 27.51 125.20 C 49.92 148.23 72.88 170.74 95.47 193.60 C 96.69 195.31 99.22 195.06 100.41 193.45 C 107.56 186.33 114.71 179.21 121.76 171.98 C 106.32 156.25 90.61 140.79 75.13 125.10 C 90.65 109.46 106.31 93.95 121.70 78.19 C 113.45 70.83 106.26 62.38 98.03 55.01 C 96.82 55.80 95.57 56.54 94.53 57.54 M 117.81 88.81 C 106.27 100.63 94.50 112.22 82.94 124.02 C 83.98 126.49 86.16 128.14 87.98 130.02 C 101.63 143.67 115.25 157.37 128.90 171.03 C 120.25 180.08 111.13 188.70 102.48 197.75 C 101.15 200.30 103.92 201.96 105.38 203.62 C 112.05 209.87 117.98 216.91 125.00 222.78 C 128.23 220.10 131.07 216.99 134.04 214.04 C 160.82 187.15 187.65 160.32 214.41 133.41 C 217.09 130.76 219.89 128.17 222.04 125.04 C 216.20 118.86 210.02 113.01 204.13 106.87 C 202.28 105.03 200.54 102.89 197.99 102.02 C 182.81 116.84 168.07 132.09 152.96 146.98 C 145.27 139.65 138.05 131.82 130.28 124.58 C 135.55 119.06 141.10 113.81 146.42 108.33 C 147.37 107.48 147.68 106.23 148.09 105.07 C 140.40 97.45 133.01 89.49 125.01 82.19 C 122.41 84.17 120.05 86.43 117.81 88.81 Z" />
</g>
<g id="#fefefeff">
<path fill="#fefefe" opacity="1.00" d=" M 122.61 29.43 C 124.02 27.46 126.68 28.36 127.93 30.01 C 150.38 52.59 172.94 75.07 195.01 98.01 C 187.96 105.29 180.74 112.42 173.62 119.63 C 172.11 121.68 169.41 120.48 168.14 118.84 C 146.05 95.98 123.38 73.68 101.10 51.01 C 108.23 43.77 115.40 36.58 122.61 29.43 Z" />
<path fill="#fefefe" opacity="1.00" d=" M 94.53 57.54 C 95.57 56.54 96.82 55.80 98.03 55.01 C 106.26 62.38 113.45 70.83 121.70 78.19 C 106.31 93.95 90.65 109.46 75.13 125.10 C 90.61 140.79 106.32 156.25 121.76 171.98 C 114.71 179.21 107.56 186.33 100.41 193.45 C 99.22 195.06 96.69 195.31 95.47 193.60 C 72.88 170.74 49.92 148.23 27.51 125.20 C 49.79 102.59 72.08 79.98 94.53 57.54 Z" />
<path fill="#fefefe" opacity="1.00" d=" M 117.81 88.81 C 120.05 86.43 122.41 84.17 125.01 82.19 C 133.01 89.49 140.40 97.45 148.09 105.07 C 147.68 106.23 147.37 107.48 146.42 108.33 C 141.10 113.81 135.55 119.06 130.28 124.58 C 138.05 131.82 145.27 139.65 152.96 146.98 C 168.07 132.09 182.81 116.84 197.99 102.02 C 200.54 102.89 202.28 105.03 204.13 106.87 C 210.02 113.01 216.20 118.86 222.04 125.04 C 219.89 128.17 217.09 130.76 214.41 133.41 C 187.65 160.32 160.82 187.15 134.04 214.04 C 131.07 216.99 128.23 220.10 125.00 222.78 C 117.98 216.91 112.05 209.87 105.38 203.62 C 103.92 201.96 101.15 200.30 102.48 197.75 C 111.13 188.70 120.25 180.08 128.90 171.03 C 115.25 157.37 101.63 143.67 87.98 130.02 C 86.16 128.14 83.98 126.49 82.94 124.02 C 94.50 112.22 106.27 100.63 117.81 88.81 Z" />
</g>
</svg>

<?xml version="1.0" encoding="utf-8"?>
<!-- Generator: Adobe Illustrator 26.0.3, SVG Export Plug-In . SVG Version: 6.00 Build 0)  -->
<svg version="1.1" id="Layer_1" xmlns="http://www.w3.org/2000/svg" xmlns:xlink="http://www.w3.org/1999/xlink" x="0px" y="0px"
	 viewBox="0 0 250 250" style="enable-background:new 0 0 250 250;" xml:space="preserve">
<style type="text/css">
	.st0{fill:#FEFEFE;}
</style>
<circle cx="125" cy="125.5" r="125"/>
<g id="_x23_fefefeff">
	<path class="st0" d="M122.6,29.4c1.4-2,4.1-1.1,5.3,0.6c22.5,22.6,45,45.1,67.1,68c-7,7.3-14.3,14.4-21.4,21.6
		c-1.5,2.1-4.2,0.9-5.5-0.8c-22.1-22.9-44.8-45.2-67-67.8C108.2,43.8,115.4,36.6,122.6,29.4z"/>
	<path class="st0" d="M94.5,57.5c1-1,2.3-1.7,3.5-2.5c8.2,7.4,15.4,15.8,23.7,23.2c-15.4,15.8-31,31.3-46.6,46.9
		c15.5,15.7,31.2,31.2,46.6,46.9c-7.1,7.2-14.2,14.4-21.3,21.5c-1.2,1.6-3.7,1.9-4.9,0.2c-22.6-22.9-45.6-45.4-68-68.4
		C49.8,102.6,72.1,80,94.5,57.5z"/>
	<path class="st0" d="M117.8,88.8c2.2-2.4,4.6-4.6,7.2-6.6c8,7.3,15.4,15.3,23.1,22.9c-0.4,1.2-0.7,2.4-1.7,3.3
		c-5.3,5.5-10.9,10.7-16.1,16.2c7.8,7.2,15,15.1,22.7,22.4c15.1-14.9,29.8-30.1,45-45c2.5,0.9,4.3,3,6.1,4.9
		c5.9,6.1,12.1,12,17.9,18.2c-2.1,3.1-4.9,5.7-7.6,8.4c-26.8,26.9-53.6,53.7-80.4,80.6c-3,3-5.8,6.1-9,8.7
		c-7-5.9-12.9-12.9-19.6-19.2c-1.5-1.7-4.2-3.3-2.9-5.9c8.6-9.1,17.8-17.7,26.4-26.7c-13.6-13.7-27.3-27.4-40.9-41
		c-1.8-1.9-4-3.5-5-6C94.5,112.2,106.3,100.6,117.8,88.8z"/>
</g>
</svg>
